svg/300/rounded/amend.svg

<svg xmlns="http://www.w3.org/2000/svg" width="48" height="48" viewBox="0 -960 960 960"><path d="M302.692-354.616h354.616q9.904 0 16.298-6.398Q680-367.412 680-377.322q0-9.909-6.394-16.294Q667.212-400 657.308-400H302.692q-9.904 0-16.298 6.398Q280-387.204 280-377.295q0 9.91 6.394 16.294 6.394 6.385 16.298 6.385Zm59.153-173.075q23.461-25.924 53.462-42.194 30-16.269 64.693-16.269 44.378 0 80.99 24.538 36.612 24.539 55.473 64.693 4.23 9.077 13.422 12.5 9.193 3.423 17.885-.808 9.307-4.615 12.961-14.076 3.654-9.462-1.192-18.539-25.616-52.769-73.717-84.384Q537.721-633.846 480-633.846q-44 0-83.385 19.616-39.385 19.616-68.924 53.001v-42.617q0-10.333-6.751-17.089-6.751-6.756-17.076-6.756-10.326 0-17.095 6.756Q280-614.179 280-603.846v101.615q0 8.616 6.808 15.423Q293.615-480 302.231-480h101.615q10.333 0 17.089-6.751 6.756-6.751 6.756-17.077 0-10.325-6.756-17.094-6.756-6.769-17.089-6.769h-42.001Zm118.222 427.69q-78.221 0-147.397-29.92-69.176-29.92-120.989-81.71-51.814-51.791-81.747-120.936-29.933-69.146-29.933-147.366 0-78.836 29.92-148.204 29.92-69.369 81.71-120.682 51.791-51.314 120.936-81.247 69.146-29.933 147.366-29.933 78.836 0 148.204 29.92 69.369 29.92 120.682 81.21 51.314 51.291 81.247 120.629 29.933 69.337 29.933 148.173 0 78.221-29.92 147.397-29.92 69.176-81.21 120.989-51.291 51.814-120.629 81.747-69.337 29.933-148.173 29.933ZM480-145.385q139.692 0 237.154-97.769Q814.615-340.923 814.615-480q0-139.692-97.461-237.154Q619.692-814.615 480-814.615q-139.077 0-236.846 97.461Q145.385-619.692 145.385-480q0 139.077 97.769 236.846T480-145.385ZM480-480Z"/></svg>

<svg xmlns="http://www.w3.org/2000/svg" width="48" height="48" viewBox="0 -960 960 960"><path d="M302.69-354.62h354.62q9.9 0 16.3-6.39 6.39-6.4 6.39-16.31 0-9.91-6.39-16.3-6.4-6.38-16.3-6.38H302.69q-9.9 0-16.3 6.4-6.39 6.4-6.39 16.31 0 9.9 6.39 16.29 6.4 6.38 16.3 6.38Zm59.15-173.07q23.47-25.92 53.47-42.19 30-16.27 64.69-16.27 44.38 0 80.99 24.53 36.61 24.54 55.47 64.7 4.23 9.07 13.43 12.5 9.19 3.42 17.88-.81 9.31-4.62 12.96-14.08 3.65-9.46-1.19-18.54-25.62-52.76-73.72-84.38-48.1-31.62-105.82-31.62-44 0-83.39 19.62-39.38 19.62-68.92 53v-42.62q0-10.33-6.75-17.09-6.75-6.75-17.08-6.75-10.32 0-17.09 6.75-6.77 6.76-6.77 17.09v101.62q0 8.61 6.81 15.42 6.81 6.81 15.42 6.81h101.62q10.33 0 17.09-6.75 6.75-6.75 6.75-17.08 0-10.32-6.75-17.09-6.76-6.77-17.09-6.77h-42.01ZM480.07-100q-78.22 0-147.4-29.92t-120.99-81.71q-51.81-51.79-81.75-120.94Q100-401.71 100-479.93q0-78.84 29.92-148.21t81.71-120.68q51.79-51.31 120.94-81.25Q401.71-860 479.93-860q78.84 0 148.21 29.92t120.68 81.21q51.31 51.29 81.25 120.63Q860-558.9 860-480.07q0 78.22-29.92 147.4t-81.21 120.99q-51.29 51.81-120.63 81.75Q558.9-100 480.07-100Zm-.07-45.39q139.69 0 237.15-97.76 97.46-97.77 97.46-236.85 0-139.69-97.46-237.15-97.46-97.46-237.15-97.46-139.08 0-236.85 97.46-97.76 97.46-97.76 237.15 0 139.08 97.76 236.85 97.77 97.76 236.85 97.76ZM480-480Z"/></svg>
